X: 1
T: Putney Ferry
M: 6/8
L: 1/8
O: Playford 1670
A: English
K: F
A |\
d2 e f2 g | a2 a c3 | d>ef e2d | c A2 A2 A |\
d2 e f2 g | a2 a c3 | e>df e2 d | e A2 A2 :|
|: a |\
a2 a g>fg | f2 f f2 e | f>ga g>fg | f2 f f2 e |\
f2 e f2 g | a2 a a>gf | e2 d c>Bc | d3 d2 :|
|: e |\
f>ed c e2 | f>ed c e2 | a>gf e g2 | f2 f f2 e |\
f2 f f2 g | a2 a a>gf | e2 d c>Bc | d3 d3 :|
